icons/outline/logs.svg

<!--
category: Development
tags: [records, history, entries, journal, document, notebook, archive, chronicle, report, data]
unicode: "fea7"
version: "3.1"
-->
<svg
  xmlns="http://www.w3.org/2000/svg"
  width="24"
  height="24"
  viewBox="0 0 24 24"
  fill="none"
  stroke="currentColor"
  stroke-width="2"
  stroke-linecap="round"
  stroke-linejoin="round"
>
  <path d="M4 12h.01m-.01 -6h.01m-.01 12h.01m3.99 0h2m-2 -6h2m-2 -6h2m4 0h6m-6 6h6m-6 6h6" />
</svg>

<!--
category: Development
tags: [records, history, entries, journal, document, notebook, archive, chronicle, report, data]
unicode: "fea7"
version: "3.1"
-->
<svg
  xmlns="http://www.w3.org/2000/svg"
  width="24"
  height="24"
  viewBox="0 0 24 24"
  fill="none"
  stroke="currentColor"
  stroke-width="2"
  stroke-linecap="round"
  stroke-linejoin="round"
>
    <path d="M4 12h.01M4 6h.01M4 18h.01M8 18h2M8 12h2M8 6h2M14 6h6M14 12h6M14 18h6" />
</svg>
